Numix/16/status/indicator-keyboard-Sv-3.svg

<?xml version="1.0" encoding="UTF-8" standalone="no"?>
<svg
   xmlns:dc="http://purl.org/dc/elements/1.1/"
   xmlns:cc="http://creativecommons.org/ns#"
   xmlns:rdf="http://www.w3.org/1999/02/22-rdf-syntax-ns#"
   xmlns:svg="http://www.w3.org/2000/svg"
   xmlns="http://www.w3.org/2000/svg"
   xmlns:sodipodi="http://sodipodi.sourceforge.net/DTD/sodipodi-0.dtd"
   xmlns:inkscape="http://www.inkscape.org/namespaces/inkscape"
   viewBox="0 0 16 16"
   id="svg2"
   version="1.1"
   inkscape:version="0.91 r13725"
   sodipodi:docname="indicator-keyboard-Sv-3.svg">
  <metadata
     id="metadata14">
    <rdf:RDF>
      <cc:Work
         rdf:about="">
        <dc:format>image/svg+xml</dc:format>
        <dc:type
           rdf:resource="http://purl.org/dc/dcmitype/StillImage" />
      </cc:Work>
    </rdf:RDF>
  </metadata>
  <defs
     id="defs12" />
  <sodipodi:namedview
     pagecolor="#ffffff"
     bordercolor="#666666"
     borderopacity="1"
     objecttolerance="10"
     gridtolerance="10"
     guidetolerance="10"
     inkscape:pageopacity="0"
     inkscape:pageshadow="2"
     inkscape:window-width="640"
     inkscape:window-height="480"
     id="namedview10"
     showgrid="false"
     inkscape:zoom="14.75"
     inkscape:cx="8"
     inkscape:cy="8"
     inkscape:window-x="65"
     inkscape:window-y="24"
     inkscape:window-maximized="0"
     inkscape:current-layer="svg2" />
  <path
     style="fill:#ececec;fill-opacity:1"
     d="M 1.5996094 0 C 0.71320937 2.9605947e-16 0 0.71320937 0 1.5996094 L 0 14.400391 C 2.9605947e-16 15.286791 0.71320937 16 1.5996094 16 L 14.400391 16 C 15.286791 16 16 15.286791 16 14.400391 L 16 1.5996094 C 16 0.71320937 15.286791 0 14.400391 0 L 1.5996094 0 z M 4.4824219 4.7246094 C 4.6504219 4.7246094 4.8165156 4.7357656 4.9785156 4.7597656 C 5.1405156 4.7837656 5.2897344 4.817375 5.4277344 4.859375 C 5.5717344 4.895375 5.7004531 4.936375 5.8144531 4.984375 C 5.9344531 5.032375 6.0333281 5.0846719 6.1113281 5.1386719 L 5.8964844 5.6503906 C 5.7224844 5.5303906 5.5078594 5.4352813 5.2558594 5.3632812 C 5.0098594 5.2912813 4.7430781 5.2558594 4.4550781 5.2558594 C 4.2570781 5.2558594 4.07425 5.2763594 3.90625 5.3183594 C 3.74425 5.3543594 3.604375 5.4178125 3.484375 5.5078125 C 3.364375 5.5918125 3.2673125 5.6980781 3.1953125 5.8300781 C 3.1293125 5.9620781 3.0957031 6.1225938 3.0957031 6.3085938 C 3.0957031 6.5005938 3.1330781 6.6629219 3.2050781 6.7949219 C 3.2770781 6.9269219 3.3759531 7.0407187 3.5019531 7.1367188 C 3.6339531 7.2327187 3.7869375 7.3184844 3.9609375 7.3964844 C 4.1349375 7.4744844 4.3233437 7.556625 4.5273438 7.640625 C 4.7733438 7.742625 5.0047031 7.8433125 5.2207031 7.9453125 C 5.4427031 8.0473125 5.634875 8.1686406 5.796875 8.3066406 C 5.958875 8.4446406 6.0875937 8.6125469 6.1835938 8.8105469 C 6.2795938 9.0085469 6.328125 9.2510625 6.328125 9.5390625 C 6.328125 10.103063 6.130375 10.526594 5.734375 10.808594 C 5.344375 11.090594 4.812625 11.230469 4.140625 11.230469 C 3.900625 11.230469 3.682375 11.215547 3.484375 11.185547 C 3.286375 11.155547 3.109125 11.120125 2.953125 11.078125 C 2.797125 11.030125 2.6646406 10.981594 2.5566406 10.933594 C 2.4486406 10.885594 2.3646875 10.844594 2.3046875 10.808594 L 2.5019531 10.277344 C 2.5619531 10.313344 2.6440937 10.354344 2.7460938 10.402344 C 2.8480937 10.450344 2.9674688 10.498875 3.1054688 10.546875 C 3.2434687 10.588875 3.4002188 10.624297 3.5742188 10.654297 C 3.7482187 10.684297 3.9403906 10.699219 4.1503906 10.699219 C 4.6363906 10.699219 5.0132031 10.613453 5.2832031 10.439453 C 5.5532031 10.259453 5.6894531 9.970219 5.6894531 9.5742188 C 5.6894531 9.3462187 5.6427344 9.1578125 5.5527344 9.0078125 C 5.4687344 8.8518125 5.3549375 8.7230938 5.2109375 8.6210938 C 5.0669375 8.5130937 4.9027969 8.4235625 4.7167969 8.3515625 C 4.5307969 8.2735625 4.3348594 8.1914219 4.1308594 8.1074219 C 3.8728594 8.0054219 3.6434531 7.9009687 3.4394531 7.7929688 C 3.2354531 7.6849688 3.0600156 7.5655937 2.9160156 7.4335938 C 2.7720156 7.2955937 2.6619844 7.1388438 2.5839844 6.9648438 C 2.5119844 6.7908437 2.4765625 6.5875156 2.4765625 6.3535156 C 2.4765625 5.8195156 2.6518594 5.4146719 3.0058594 5.1386719 C 3.3598594 4.8626719 3.8524219 4.7246094 4.4824219 4.7246094 z M 6.7304688 6.4433594 L 7.3515625 6.4433594 C 7.4235625 6.7613594 7.5112812 7.10275 7.6132812 7.46875 C 7.7212812 7.82875 7.8350781 8.1888281 7.9550781 8.5488281 C 8.0810781 8.9028281 8.2097969 9.2479844 8.3417969 9.5839844 C 8.4737969 9.9139846 8.6025156 10.208797 8.7285156 10.466797 C 8.8545156 10.208797 8.9851875 9.9139846 9.1171875 9.5839844 C 9.2491875 9.2479844 9.3741406 8.9028281 9.4941406 8.5488281 C 9.6201406 8.1888281 9.7339375 7.82875 9.8359375 7.46875 C 9.9439375 7.10275 10.033469 6.7613594 10.105469 6.4433594 L 10.691406 6.4433594 C 10.583406 6.8693594 10.464031 7.289125 10.332031 7.703125 C 10.200031 8.117125 10.058203 8.5219687 9.9082031 8.9179688 C 9.7642031 9.3139687 9.6112188 9.6945467 9.4492188 10.060547 C 9.2932188 10.426547 9.1402344 10.771703 8.9902344 11.095703 L 8.4316406 11.095703 C 8.2756406 10.771703 8.1208437 10.426547 7.9648438 10.060547 C 7.8088438 9.6945467 7.6558594 9.3139687 7.5058594 8.9179688 C 7.3618594 8.5219688 7.2237969 8.117125 7.0917969 7.703125 C 6.9597969 7.289125 6.8384687 6.8693594 6.7304688 6.4433594 z M 12.326172 8.7539062 C 12.528972 8.7539062 12.703356 8.7793781 12.847656 8.8300781 C 12.995856 8.8807781 13.117344 8.953275 13.214844 9.046875 C 13.312344 9.136575 13.384841 9.2463 13.431641 9.375 C 13.478441 9.4997999 13.501953 9.6350031 13.501953 9.7832031 C 13.501953 10.021103 13.437294 10.217041 13.308594 10.369141 C 13.183794 10.517341 13.023119 10.625106 12.824219 10.691406 C 12.933419 10.718706 13.037272 10.759859 13.138672 10.818359 C 13.243972 10.872959 13.338022 10.945456 13.419922 11.035156 C 13.501822 11.120956 13.568441 11.226762 13.619141 11.351562 C 13.669841 11.476363 13.695313 11.623316 13.695312 11.791016 C 13.695312 11.962616 13.663963 12.119372 13.601562 12.263672 C 13.543063 12.407972 13.452931 12.535331 13.332031 12.644531 C 13.215031 12.749831 13.066113 12.834084 12.882812 12.896484 C 12.699512 12.954984 12.483981 12.984375 12.238281 12.984375 C 12.109581 12.984375 11.990059 12.974578 11.880859 12.955078 C 11.775559 12.939478 11.683463 12.919884 11.601562 12.896484 C 11.519663 12.873084 11.449125 12.849572 11.390625 12.826172 C 11.336025 12.802772 11.294878 12.783178 11.267578 12.767578 L 11.367188 12.427734 C 11.390588 12.443334 11.429775 12.462928 11.484375 12.486328 C 11.538975 12.509728 11.603634 12.533241 11.677734 12.556641 C 11.755734 12.576141 11.839994 12.593775 11.933594 12.609375 C 12.031094 12.624975 12.1369 12.632813 12.25 12.632812 C 12.6205 12.632812 12.886975 12.556397 13.046875 12.404297 C 13.206775 12.248297 13.285156 12.040597 13.285156 11.779297 C 13.285156 11.607697 13.251847 11.464662 13.185547 11.351562 C 13.123147 11.238462 13.036928 11.148331 12.923828 11.082031 C 12.814628 11.011831 12.685309 10.962847 12.537109 10.935547 C 12.392809 10.904347 12.238019 10.888672 12.074219 10.888672 L 12.015625 10.888672 L 12.015625 10.574219 L 12.150391 10.574219 C 12.255691 10.574219 12.363456 10.564422 12.472656 10.544922 C 12.585756 10.521522 12.687644 10.480375 12.777344 10.421875 C 12.870944 10.363375 12.947359 10.285 13.005859 10.1875 C 13.068259 10.09 13.097656 9.9646001 13.097656 9.8125 C 13.097656 9.6838 13.078056 9.5760281 13.035156 9.4863281 C 12.992256 9.3927281 12.933475 9.3182719 12.859375 9.2636719 C 12.789175 9.2090719 12.704922 9.1698844 12.607422 9.1464844 C 12.513822 9.1191844 12.413894 9.1054687 12.308594 9.1054688 C 12.097994 9.1054688 11.935359 9.1348594 11.818359 9.1933594 C 11.701359 9.2518594 11.60535 9.3067219 11.53125 9.3574219 L 11.367188 9.0585938 C 11.406187 9.0312937 11.455172 8.9999437 11.513672 8.9648438 C 11.576072 8.9297437 11.648569 8.8964344 11.730469 8.8652344 C 11.812369 8.8340344 11.900547 8.8085625 11.998047 8.7890625 C 12.099447 8.7656625 12.209172 8.7539062 12.326172 8.7539062 z "
     id="path4" />
</svg>

<svg xmlns="http://www.w3.org/2000/svg" viewBox="0 0 16 16">
 <path d="m 1.6 0 c -0.886 0 -1.6 0.713 -1.6 1.6 l 0 12.801 c 0 0.886 0.713 1.6 1.6 1.6 l 12.801 0 c 0.886 0 1.6 -0.713 1.6 -1.6 l 0 -12.801 c 0 -0.886 -0.713 -1.6 -1.6 -1.6 l -12.801 0 z m 2.883 4.725 c 0.168 0 0.334 0.011 0.496 0.035 c 0.162 0.024 0.311 0.058 0.449 0.1 c 0.144 0.036 0.273 0.077 0.387 0.125 c 0.12 0.048 0.219 0.1 0.297 0.154 l -0.215 0.512 c -0.174 -0.12 -0.389 -0.215 -0.641 -0.287 c -0.246 -0.072 -0.513 -0.107 -0.801 -0.107 c -0.198 0 -0.381 0.02 -0.549 0.063 c -0.162 0.036 -0.302 0.099 -0.422 0.189 c -0.12 0.084 -0.217 0.19 -0.289 0.322 c -0.066 0.132 -0.1 0.293 -0.1 0.479 c 0 0.192 0.037 0.354 0.109 0.486 c 0.072 0.132 0.171 0.246 0.297 0.342 c 0.132 0.096 0.285 0.182 0.459 0.26 c 0.174 0.078 0.362 0.16 0.566 0.244 c 0.246 0.102 0.477 0.203 0.693 0.305 c 0.222 0.102 0.414 0.223 0.576 0.361 c 0.162 0.138 0.291 0.306 0.387 0.504 c 0.096 0.198 0.145 0.441 0.145 0.729 c 0 0.564 -0.198 0.988 -0.594 1.27 c -0.39 0.282 -0.922 0.422 -1.594 0.422 c -0.24 0 -0.458 -0.015 -0.656 -0.045 c -0.198 -0.03 -0.375 -0.065 -0.531 -0.107 c -0.156 -0.048 -0.288 -0.097 -0.396 -0.145 c -0.108 -0.048 -0.192 -0.089 -0.252 -0.125 l 0.197 -0.531 c 0.06 0.036 0.142 0.077 0.244 0.125 c 0.102 0.048 0.221 0.097 0.359 0.145 c 0.138 0.042 0.295 0.077 0.469 0.107 c 0.174 0.03 0.366 0.045 0.576 0.045 c 0.486 0 0.863 -0.086 1.133 -0.26 c 0.27 -0.18 0.406 -0.469 0.406 -0.865 c 0 -0.228 -0.047 -0.416 -0.137 -0.566 c -0.084 -0.156 -0.198 -0.285 -0.342 -0.387 c -0.144 -0.108 -0.308 -0.198 -0.494 -0.27 c -0.186 -0.078 -0.382 -0.16 -0.586 -0.244 c -0.258 -0.102 -0.487 -0.206 -0.691 -0.314 c -0.204 -0.108 -0.379 -0.227 -0.523 -0.359 c -0.144 -0.138 -0.254 -0.295 -0.332 -0.469 c -0.072 -0.174 -0.107 -0.377 -0.107 -0.611 c 0 -0.534 0.175 -0.939 0.529 -1.215 c 0.354 -0.276 0.847 -0.414 1.477 -0.414 z m 2.248 1.719 l 0.621 0 c 0.072 0.318 0.16 0.659 0.262 1.025 c 0.108 0.36 0.222 0.72 0.342 1.08 c 0.126 0.354 0.255 0.699 0.387 1.035 c 0.132 0.33 0.261 0.625 0.387 0.883 c 0.126 -0.258 0.257 -0.553 0.389 -0.883 c 0.132 -0.336 0.257 -0.681 0.377 -1.035 c 0.126 -0.36 0.24 -0.72 0.342 -1.08 c 0.108 -0.366 0.198 -0.707 0.27 -1.025 l 0.586 0 c -0.108 0.426 -0.227 0.846 -0.359 1.26 c -0.132 0.414 -0.274 0.819 -0.424 1.215 c -0.144 0.396 -0.297 0.777 -0.459 1.143 c -0.156 0.366 -0.309 0.711 -0.459 1.035 l -0.559 0 c -0.156 -0.324 -0.311 -0.669 -0.467 -1.035 c -0.156 -0.366 -0.309 -0.747 -0.459 -1.143 c -0.144 -0.396 -0.282 -0.801 -0.414 -1.215 c -0.132 -0.414 -0.253 -0.834 -0.361 -1.26 z m 5.596 2.311 c 0.203 0 0.377 0.025 0.521 0.076 c 0.148 0.051 0.27 0.123 0.367 0.217 c 0.098 0.09 0.17 0.199 0.217 0.328 c 0.047 0.125 0.07 0.26 0.07 0.408 c 0 0.238 -0.065 0.434 -0.193 0.586 c -0.125 0.148 -0.285 0.256 -0.484 0.322 c 0.109 0.027 0.213 0.068 0.314 0.127 c 0.105 0.055 0.199 0.127 0.281 0.217 c 0.082 0.086 0.149 0.192 0.199 0.316 c 0.051 0.125 0.076 0.272 0.076 0.439 c 0 0.172 -0.031 0.328 -0.094 0.473 c -0.058 0.144 -0.149 0.272 -0.27 0.381 c -0.117 0.105 -0.266 0.19 -0.449 0.252 c -0.183 0.059 -0.399 0.088 -0.645 0.088 c -0.129 0 -0.248 -0.01 -0.357 -0.029 c -0.105 -0.016 -0.197 -0.035 -0.279 -0.059 c -0.082 -0.023 -0.152 -0.047 -0.211 -0.07 c -0.055 -0.023 -0.096 -0.043 -0.123 -0.059 l 0.1 -0.34 c 0.023 0.016 0.063 0.035 0.117 0.059 c 0.055 0.023 0.119 0.047 0.193 0.07 c 0.078 0.019 0.162 0.037 0.256 0.053 c 0.098 0.016 0.203 0.023 0.316 0.023 c 0.37 0 0.637 -0.076 0.797 -0.229 c 0.16 -0.156 0.238 -0.364 0.238 -0.625 c 0 -0.172 -0.033 -0.315 -0.1 -0.428 c -0.062 -0.113 -0.149 -0.203 -0.262 -0.27 c -0.109 -0.07 -0.239 -0.119 -0.387 -0.146 c -0.144 -0.031 -0.299 -0.047 -0.463 -0.047 l -0.059 0 l 0 -0.314 l 0.135 0 c 0.105 0 0.213 -0.01 0.322 -0.029 c 0.113 -0.023 0.215 -0.065 0.305 -0.123 c 0.094 -0.059 0.17 -0.137 0.229 -0.234 c 0.062 -0.098 0.092 -0.223 0.092 -0.375 c 0 -0.129 -0.02 -0.236 -0.063 -0.326 c -0.043 -0.094 -0.102 -0.168 -0.176 -0.223 c -0.07 -0.055 -0.154 -0.094 -0.252 -0.117 c -0.094 -0.027 -0.194 -0.041 -0.299 -0.041 c -0.211 0 -0.373 0.029 -0.49 0.088 c -0.117 0.059 -0.213 0.113 -0.287 0.164 l -0.164 -0.299 c 0.039 -0.027 0.088 -0.059 0.146 -0.094 c 0.062 -0.035 0.135 -0.068 0.217 -0.1 c 0.082 -0.031 0.17 -0.057 0.268 -0.076 c 0.101 -0.023 0.211 -0.035 0.328 -0.035 z" style="fill:#ececec;fill-opacity:1"/>
</svg>
